_includes/icons/color-documents-folder.svg

<svg fill="#666" height="50" viewBox="0 0 48 48" width="50" xmlns="http://www.w3.org/2000/svg"><path d="m40 12h-18l-4-4h-10c-2.199219 0-4 1.800781-4 4v8h40v-4c0-2.199219-1.800781-4-4-4z" fill="#ffa000"/><path d="m40 12h-32c-2.199219 0-4 1.800781-4 4v20c0 2.199219 1.800781 4 4 4h32c2.199219 0 4-1.800781 4-4v-20c0-2.199219-1.800781-4-4-4z" fill="#ffca28"/><path d="m33 36h-16v-20h10.5l5.5 5.5z" fill="#64b5f6"/><path d="m32 22h-5v-5z" fill="#e1f5fe"/></svg>

<svg xmlns="http://www.w3.org/2000/svg" viewBox="0 0 48 48" width="50" height="50" fill="#666"><path d="M 40 12 L 22 12 L 18 8 L 8 8 C 5.800781 8 4 9.800781 4 12 L 4 20 L 44 20 L 44 16 C 44 13.800781 42.199219 12 40 12 Z" fill="#ffa000"/><path d="M 40 12 L 8 12 C 5.800781 12 4 13.800781 4 16 L 4 36 C 4 38.199219 5.800781 40 8 40 L 40 40 C 42.199219 40 44 38.199219 44 36 L 44 16 C 44 13.800781 42.199219 12 40 12 Z" fill="#ffca28"/><path d="M 33 36 L 17 36 L 17 16 L 27.5 16 L 33 21.5 Z" fill="#64b5f6"/><path d="M 32 22 L 27 22 L 27 17 Z" fill="#e1f5fe"/></svg>
